X:5
T:Hooly and Fairly
B:Bremner: Instructions for the Guitar, London, c.1765, NLS MH.s.252(1)
Z:Jack Campin, <http://www.campin.me.uk/> April 2001
M:6/4
L:1/4
K:C
[Cc]>dc efg|[Gd]>ed fga|c>dc  geg|c'>ba gfe    |\
 faf    ege| d>ed   f2a|c'>ba geg|c>dc [c2e2]g||\
 c>dc   e2g| d>ed   f2a|c'>ba geg|a<c'g Te2g  |]
